icons/fill-new-sound-broadcast-volume-off.svg

<svg xmlns="http://www.w3.org/2000/svg" width="32px" height="32px" viewBox="0 0 32 32" version="1.1">
    <title>fill-new-sound-broadcast-volume-off</title>
    <g id="fill-new-sound-broadcast-volume-off" stroke-width="1" fill-rule="evenodd">
        <path d="M23,13.2422136 L23,28.5857864 C23,29.1380712 22.5522847,29.5857864 22,29.5857864 C21.7347835,29.5857864 21.4804296,29.4804296 21.2928932,29.2928932 L15,23 L13.244,22.9992136 L23,13.2422136 Z M22.7071068,2.70710678 C22.8946432,2.89464316 23,3.14899707 23,3.41421356 L23,7.58421356 L26.2928932,4.29289322 C26.6834175,3.90236893 27.3165825,3.90236893 27.7071068,4.29289322 C28.0976311,4.68341751 28.0976311,5.31658249 27.7071068,5.70710678 L5.70710678,27.7071068 C5.31658249,28.0976311 4.68341751,28.0976311 4.29289322,27.7071068 C3.90236893,27.3165825 3.90236893,26.6834175 4.29289322,26.2928932 L8.11636125,22.4685175 C8.04207245,22.3287766 8,22.1693016 8,22 L8,10 C8,9.44771525 8.44771525,9 9,9 L15,9 L21.2928932,2.70710678 C21.6834175,2.31658249 22.3165825,2.31658249 22.7071068,2.70710678 Z" id="&#24418;&#29366;" />
    </g>
</svg>

<svg xmlns="http://www.w3.org/2000/svg" viewBox="0 0 32 32"><path fill="currentColor" d="M23 13.242v15.344a1 1 0 0 1-1.707.707L15 23h-1.756zm-.293-10.535a1 1 0 0 1 .293.707v4.17l3.293-3.291a1 1 0 0 1 1.414 1.414l-22 22a1 1 0 1 1-1.414-1.414l3.823-3.824A.995.995 0 0 1 8 22V10a1 1 0 0 1 1-1h6l6.293-6.293a1 1 0 0 1 1.414 0"/></svg>
